X:1
T:Title
%%score { ( 1 4 ) | ( 2 3 ) }
L:1/8
M:9/8
K:C
V:1 treble nm="Grand Piano"
V:4 treble 
V:2 bass 
V:3 bass 
V:1
 z3 z2[Q:1/4=110] [EG] [EG]2 [EG] | [Ec]3- [Ec]2 [EG] [_E^F][=EG][=FA] | [EG]3 E2 E FGA | %3
 G3 c2 [EG] GFE | D3- D2 G G2 [FG] |[M:5/8] [Ec]-[Ec]- [Ec]3 |[M:2/4] [EG][_E^F] [=EG][=FA] | %7
[M:9/8] [EG]3 E2 E E2 E | D3- D2 B AE^F |[M:5/8] G-G- G3 |[M:2/4] G G2 G |[M:9/8] d3- d2 B A2 B | %12
[M:5/8] [Ec]3 [EG]2 |[M:2/4] G G2 ^G |[M:9/8] A2 B c3 [Ad]3 | [^Ge]3- [Ge]2 =G G2 G | [Ge]6 z3 | %17
 [GB]3 [FA]2 [Ad] [^Ge]2 [Gf] | [Ge]3- [Ge]2 [FAd] [EGc]2 [DFB] |[M:5/8] [CEc]-[CEc]- [CEc]3 |] %20
V:2
 z3 z2 [C,C] [C,C]2 [C,C] | [C,G,]3- [C,G,]2 [C,C] [C,C]2 [C,C] | z3 z3 .A,3 | [E,C]3 z3 z3 | %4
 [G,B,]3- [G,B,]2 [F,B,D] [E,C]2 [D,G,] |[M:5/8] [C,G,]-[C,G,]- [C,G,]3 | %6
[M:2/4] [C,C] [C,C]2 [C,C] |[M:9/8] [C,C]3 [C,G,C]2 [C,G,C] [C,G,C]2 [C,G,C] | %8
 [D,G,B,]3- [D,G,B,]2 [D,G,D] [D,A,C]2 [D,A,C] |[M:5/8] [G,B,]-[G,B,]- [G,B,]3 |[M:2/4] G, G,2 G, | %11
[M:9/8][K:treble] [G,B,F]3- [G,B,F]2 [G,DF] [G,DF]2 [G,DF] |[M:5/8][K:bass] [C,C]3 [C,C]2 | %13
[M:2/4] [CE] [CE]2 [B,DE] |[M:9/8] [A,CE]2 [^G,DE] [A,CE]3 [F,A,]3 | [E,B,]3- [E,B,]2 G, G,2 G, | %16
 C3 z3 z3 | [F,C]3 [F,C]2 [F,A,] [E,B,]2 [D,B,] | C6 z3 |[M:5/8] C,-C,- C,3 |] %20
V:3
 x9 | x9 | [C,C]3 [C,G,C]2 [C,G,C] [C,C]-[C,E,C][C,F,C] | C,3- [C,G,E]2 [C,G,] [B,,G,]2 [C,G,C] | %4
 x9 |[M:5/8] x5 |[M:2/4] x4 |[M:9/8] x9 | x9 |[M:5/8] x5 |[M:2/4] x4 |[M:9/8][K:treble] x9 | %12
[M:5/8][K:bass] x5 |[M:2/4] x4 |[M:9/8] x9 | x9 | C,3- C,2 [C,G,] [C,G,]2 [E,C] | x9 | %18
 C,2 D, E,2 F, G,2 G,, |[M:5/8] x5 |] %20
V:4
 x9 | x9 | x9 | z3 z3 .D3 | x9 |[M:5/8] x5 |[M:2/4] x4 |[M:9/8] x9 | x9 |[M:5/8] x5 |[M:2/4] x4 | %11
[M:9/8] x9 |[M:5/8] x5 |[M:2/4] x4 |[M:9/8] x9 | x9 | z3 G,2 [Fd] [Ec]2 G | x9 | x9 |[M:5/8] x5 |] %20

